X: 12
T:Reel de Mattawa
% Nottingham Music Database
S:via PR
M:4/4
L:1/4
K:D
e/2f/2|"Em"g/2e/2f/2d/2 e/2c/2d/2B/2|"D"A/2B/2A/2F/2 DF/2D/2|\
"Em"E/2F/2G/2A/2 Be/2f/2|"C"g/2f/2e/2d/2 "Bm"Ae/2f/2|
"Em"g/2e/2f/2d/2 e/2c/2d/2B/2|"D"A/2B/2A/2F/2 DF/2D/2|"Em"E/2F/2G/2A/2 BA/2G/2\
|"Bm"F/2D/2G/2F/2 "Em"E::
A|"Em"Be/2B/2 g/2B/2e/2B/2|"Em"Be/2B/2 g/2B/2e/2B/2|"D"df/2d/2 g/2d/2f/2d/2|\
"D"df/2d/2 g/2d/2f/2d/2|
"Em"Be/2B/2 g/2B/2e/2B/2|"Em"Be/2B/2 g/2B/2e/2B/2|"Bm"f3/2g/2 f/2e/2d/2c/2|\
"Bm"B/2c/2d/2d/2 "Em"e:|


